X:1
T:Title
L:1/8
Q:1/4=100
M:4/4
K:Ab
V:1 treble nm="Grand Piano"
V:1
 F2 C2 F2 G2 | A3 B/A/ G4 | G2 C2 G2 A2 | B3 c/B/ A4 | c3 c A2 F2 | d2 c2 B2 A2 | G2 F2 E2 D2 | %7
w: ?????~???????? * * *|||||||
 C4 c4- | c4 z c2 c | A2 F2 d3 c | d4- d B2 B | G2 E2 c3 B | c4- c A2 A | F2 D2 B3 =A | %14
w: |||||||
 B4- B G2 G | G2 G2 GFGA | B4- B B2 B | B2 B2 BGAB | c4 z c2 c | A2 F2 d3 c | d4- d B2 B | %21
w: |||||||
 G2 E2 c3 B | c4- c A2 A | F2 D2 B3 =A | B4 z B2 B | B2 B2 e4 | d4 c4 | cBBA AGGF | E3 F EDDC | %29
w: ||||||||
 C8 |] %30
w: |

